Catalina-dark/actions/16/format-text-remove-formatting.svg

<?xml version="1.0" encoding="UTF-8" standalone="no"?>
<svg
   xmlns:dc="http://purl.org/dc/elements/1.1/"
   xmlns:cc="http://creativecommons.org/ns#"
   xmlns:rdf="http://www.w3.org/1999/02/22-rdf-syntax-ns#"
   xmlns:svg="http://www.w3.org/2000/svg"
   xmlns="http://www.w3.org/2000/svg"
   xmlns:sodipodi="http://sodipodi.sourceforge.net/DTD/sodipodi-0.dtd"
   xmlns:inkscape="http://www.inkscape.org/namespaces/inkscape"
   width="16"
   height="16"
   viewBox="0 0 16 16"
   version="1.1"
   id="svg7"
   sodipodi:docname="format-text-remove-formatting.svg"
   inkscape:version="0.92.4 5da689c313, 2019-01-14">
  <metadata
     id="metadata11">
    <rdf:RDF>
      <cc:Work
         rdf:about="">
        <dc:format>image/svg+xml</dc:format>
        <dc:type
           rdf:resource="http://purl.org/dc/dcmitype/StillImage" />
      </cc:Work>
    </rdf:RDF>
  </metadata>
  <sodipodi:namedview
     pagecolor="#ffffff"
     bordercolor="#666666"
     borderopacity="1"
     objecttolerance="10"
     gridtolerance="10"
     guidetolerance="10"
     inkscape:pageopacity="0"
     inkscape:pageshadow="2"
     inkscape:window-width="640"
     inkscape:window-height="480"
     id="namedview9"
     showgrid="false"
     inkscape:zoom="14.75"
     inkscape:cx="6.8135593"
     inkscape:cy="8"
     inkscape:window-x="0"
     inkscape:window-y="26"
     inkscape:window-maximized="0"
     inkscape:current-layer="svg7" />
  <defs
     id="defs3">
    <style
       id="current-color-scheme"
       type="text/css">
   .ColorScheme-Text { color:#5c616c; } .ColorScheme-Highlight { color:#5294e2; }
  </style>
  </defs>
  <path
     style="fill:#f1f6f8;fill-opacity:0.8509804"
     class="ColorScheme-Text"
     d="M 2.3398438 0.9375 L 0.93359375 2.34375 L 5.6269531 7.0371094 C 4.8624431 7.1255094 4.1894937 7.46474 3.7460938 7.96875 C 3.2316937 8.55354 2.9897037 9.2794 2.9960938 10 C 3.0020937 10.72062 3.2650238 11.45275 3.7773438 12.03125 C 4.2896637 12.60979 5.0877938 13 5.9960938 13 L 11.589844 13 L 13.652344 15.0625 L 15.058594 13.65625 L 2.3398438 0.9375 z M 6.4023438 3 L 8.4023438 5 L 9.9960938 5 C 10.424254 5 10.996094 5.61414 10.996094 6 L 10.996094 7 L 10.402344 7 L 12.996094 9.59375 L 12.996094 6 C 12.996184 4.3657 11.676294 3 9.9960938 3 L 6.4023438 3 z M 5.9960938 9 L 7.5898438 9 L 9.5898438 11 L 5.9960938 11 C 5.5982237 11 5.4291837 10.89021 5.2773438 10.71875 C 5.1255038 10.54729 4.9985737 10.27938 4.9960938 10 C 4.9940937 9.72062 5.1007637 9.44646 5.2460938 9.28125 C 5.3914238 9.11604 5.5737337 9 5.9960938 9 z"
     id="path5" />
</svg>

<svg width="16" height="16" version="1.1" viewBox="0 0 16 16" xmlns="http://www.w3.org/2000/svg">
<defs>
<style id="current-color-scheme" type="text/css">.ColorScheme-Text { color:#5c616c; } .ColorScheme-Highlight { color:#5294e2; }</style>
</defs>
<path class="ColorScheme-Text" d="m2.3398 0.9375-1.4063 1.4062 4.6934 4.6934c-0.76451 0.0884-1.4375 0.42763-1.8809 0.93164-0.5144 0.58479-0.75639 1.3106-0.75 2.0312 0.0059999 0.72062 0.26893 1.4528 0.78125 2.0312 0.51232 0.57854 1.3104 0.96875 2.2188 0.96875h5.5938l2.0625 2.0625 1.4062-1.4062-12.719-12.719zm4.0625 2.0625 2 2h1.5938c0.42816 0 1 0.61414 1 1v1h-0.59375l2.5938 2.5938v-3.5938c9e-5 -1.6343-1.3198-3-3-3h-3.5938zm-0.40625 6h1.5938l2 2h-3.5938c-0.39787 0-0.56691-0.10979-0.71875-0.28125-0.15184-0.17146-0.27877-0.43937-0.28125-0.71875-0.0020001-0.27938 0.10467-0.55354 0.25-0.71875 0.14533-0.16521 0.32764-0.28125 0.75-0.28125z" fill="#f1f6f8" fill-opacity=".85098"/>
</svg>
